library-shelves.svg

<svg fill="currentColor" viewBox="0 0 24 24"><path d="M19.5 9V1.5h-3V9h-3V1.5h-3V9h-3V1.5H4.65V9H3v1.5h18V9zm0 4.5h-3V21h-3v-7.5h-3V21h-3v-7.5H4.65V21H3v1.5h18V21h-1.5z"/></svg>

<svg  viewBox="0 0 24 24" fill="currentColor"><path  d="M19.5,9V1.5H16.5V9H13.5V1.5H10.5V9H7.5V1.5H4.65V9H3V10.5H21V9H19.5M19.5,13.5H16.5V21H13.5V13.5H10.5V21H7.5V13.5H4.65V21H3V22.5H21V21H19.5V13.5Z"/></svg>
